X:1
T:Choralvorspiel ''Nun komm' der Heiden Heiland''
T:Choralvorspiel ''Nun komm' der Heiden Heiland''
T: BWV 659
T:J. S. Bach 
T:Arr F. Busoni
T:*) The prelude, the interludes and the accompaniment-parts are to be kept well in the background and maintain throughout a quiet, reticent character as a contrast to the melodic part, which must be strongly accented.
C:J. S. Bach Arr F. Busoni
%%score { ( 1 2 4 7 ) | ( 3 5 6 8 ) }
L:1/8
Q:1/4=35
M:4/4
K:Bb
V:1 treble nm="Piano" snm="Pno."
V:2 treble 
V:4 treble 
V:7 treble 
V:3 bass 
V:5 bass 
V:6 bass 
V:8 bass 
V:1
!p!"^Adagio""_(una corda *)" z4[K:bass] z2 (D2 | D2 C2 F3 E/D/ |"_senza rallentando" E4) D4!p! | %3
 D2[K:treble]"^sehr ausdrucksvoll mit vollem Anschlag""^sostenuto ed espressivo assai""^Canto."[Q:1/4=34]"^T""_(tre corde)" G2 G2 ((^FG/)A/) | %4
!p! B2- !1!B/(G/A/4G/4^F/4G/4) c2-!p! c/A/B/4A/4G/4A/4 | %5
 d2- d/!tenuto!!3!G/4!tenuto!!4!A/4!tenuto!!3!B/4!tenuto!c/4!tenuto!d/ e>d c/B/4A/4A/B/4c/4 | %6
 G/^F/=E/D/ G2- G/4!p!A/4G/4F/4G/c/4A/4 (GPF/>)G/ | G4 A,3 B,/C/ | DEFG C3 D/E/ | F3 G/F/ E4 | %10
"^Canto.""_(t.c.)"!p! !tenuto!G((B/A/ B/4A/4B3/2)) (!tenuto!c2 c/)B/A/B/ | %11
 c/d/e-"_ten" e/c/B/c/ d/e/f- f/d/c/d/ | %12
"_ten" !tenuto!e/!tenuto!f/!tenuto!g- g/c/d/e/ B/A/G/F/ [Ff-]2 | %13
 f/g/4f/4e/4f/4d/ e2- e/a/4b/4c'/e/ d2- | d/G/PG/4F/4G/ c/4B/4A/B/4A/4G/ F/G/4A/4B/4c/4d/4e/4 f2- | %15
 f/g/4f/4e/4d/4c/4B/4 (d[Q:1/4=30]"^T""^dim."Pc/>B/) B4 | C3 D/E/ F4- | FE/D/ Ec ^FG A2- | %18
"_(t.c.)""^Canto." (Bc/4B/4A/4B/4) (cd/4c/4B/4c/4) d/B/A/B/ B/f!5!e/4!5!d/4 | %19
 c/d/4c/4=B/c/ d/e/4d/4=c/d/ e/c/B/c/ c/gf/4e/4 | %20
 d/g/4a/4b/f/ (e/d/)(d/c/) c/^f/4g/4a/e/ (d/c/)(c/B/) | %21
 B/g/>=f/e/4d/4 c/4d/4c/4=B/4c- c/e/4d/4c/4d/4e/- e/4c/4_A/4G/4A- | %22
"_dramatico"!mp! _A/e/4d/4e/4c/4=B/4c/4 c/4A/4G/4A/4!5!A/4!4!G/4!3!^F/4G/4 F/=A/4c/4e/d/ d2- | %23
 d/4g/4^f/4=e/<d/c/4 (B!p!PA/4G/4A/) !tenuto!G4 | E4- ED/C/ (D/_E/)(E/=F/) | %25
 (F4- F/E/)(G/F/) (F/E/)(E/D/) | (D/_A/)(A/G/) (G/F/)(F/E/) (E>F !4!!1!E/4!3!!2!D/4-!1!D!5!!1!G/) | %27
 (!3!!1!E/F/)(F/E/)"^Canto." (!tenuto!G2 G/4^F/4G/A/4G/4F/4G/4 FG/A/) | %28
 !tenuto!B2 B/(G/-G/8A/8G/8^F/8G/) !tenuto!c2- c/(A/-A/8B/8A/8G/8A/) | %29
 !tenuto!d2- d/G/4A/4B/4!tenuto!c/4!tenuto!d/"^ritenutamente"[Q:1/4=30]"^T" !>!e>d [Gc]/B/4A/4A/B/4c/4 | %30
 G/^F/=E/D/ G2- G/4A/4G/4F/4G/c/4A/4 (GPF/>)!f!G/ | %31
"^con grand' espress. e largamente"!<(! G/!<)!g/=f- f/e/4d/4g/4f/4e/4d/4 f/4e/4d/4c/4_b- b/4a/4b/4c'/4b/4a/4g/4a/4 | %32
 g/4^f/4g/4a/4c-!>(! c/4e/4d/4c/4d/4c/4B/4A/4[Q:1/4=25]"^T"!p!"^dim." B/g/4e/4!tenuto!^c/4!tenuto!d/4!tenuto!G/ BPA/4G/4A/!>)! | %33
[Q:1/4=30]"^(Adagio)"!pp! !fermata!G,3- G,/^F,/!ppp! !fermata!D4 |] %34
V:2
 z2[K:bass] (G,2 G,2 F,2 | B,3 A,/G,/ A,2) G,2- | G,2 C4 B,A, | G,^F,[K:treble] C2 D4- | D2 x6 | %5
 C!1!B,/!1!A,/ B,[D-G] G^F GE | [A,D]2 z [G,-B,] G,C DC- | C"_(u.c.)"B,/C/ DC/B,/ G,2 F,2- | %8
 F,2 B,4 A,2- | A,=B,/C/ D2- DC/B,/ C2- | C_B,/C/ DE/F/ G/F/E/D/ C x | z (G F2-) F2 D[FB] | %12
 B2 z G F2 B/c/d- | d2 c2- c2 B2- | !tenuto![GB] z !tenuto![EG] z !tenuto![A,C] z z [Ae] | %15
 d2 (BA) E"_(u.c.)"D/E/ FE/D/ | B,2 A,2- A,=B,/C/ D/C/B,/A,/ | G,2- G,3/2A,/4B,/4 C/D/ E2 D/C/ | %18
 AG =F2- FED[B,G] | [FA] z z [F=B] [Gc]F E2 | _B2 x (.B !tenuto!A2) z .[D-A] | %21
 !tenuto![DG]2 z/ (F/G/F/ G) z x2 | x3 !2!E [=A,D][C^F] D/C/C/B,/ | [B,D]G- G^F G,4- | %24
 G,G,/^F,/ (G,/A,/)(A,/B,/) B,4- | B,A,/G,/ (A,/=B,/)(B,/C/) C4- | %26
 C4 (C>D) (C/4=B,/4C/4!2!B,/4!1!C/4!2!B,/4=A,/4!2!B,/4 | %27
 C) z (E/D/)(D/C/) (C/B,/)(B,/A,/) A,B,/C/ | %28
[I:staff +1] ^F,[I:staff -1]DG,B,- !1!B,!1!A,/!2!G,/ A,C- | C!1!B,/!1!A,/ B,[DG]- G^F x2 | %30
 [A,D]2 z [G,B,] G,C DC | x8 | x4 D[DG]- G^F | C<"^+""^tenuto"!tenuto!=B,- E2 [G,=B,]4 |] %34
V:3
 [G,,,G,,][A,,,A,,][B,,,B,,][C,,C,] [D,,D,][E,,E,][D,,D,][C,,C,] | %1
 [B,,,B,,][D,,D,][F,,F,][E,,E,] [D,,D,][C,,C,][=B,,,=B,,][G,,,G,,] | %2
 [C,,C,][_B,,,_B,,][A,,,A,,][G,,,G,,] [^F,,,^F,,][D,,,D,,][G,,,G,,][=F,,,=F,,] | %3
 [E,,,E,,][D,,,D,,] [E,,,E,,]2 [D,,,D,,]4- | %4
!ped! [D,A,][I:staff -1]!1!G,/!2!^F,/!ped-up! G,!1!B,-!ped! B,!1!A,/!2!G,/!ped-up! A,C- | %5
[I:staff +1] [^F,,^F,][D,,D,][G,,G,][G,,,G,,] ([C,,C,]D,E,)[C,,C,] | %6
 [D,,D,][C,,C,][B,,,B,,][_E,,_E,] [C,,C,][A,,,A,,][D,,D,][D,,,D,,] | %7
 [G,,,G,,][A,,,A,,][B,,,B,,][C,,C,] [D,,D,][E,,E,][D,,D,][C,,C,] | %8
 [B,,,B,,][C,,C,][D,,D,][E,,E,] [F,,F,][G,,G,][F,,F,][E,,E,] | %9
 [D,,D,][C,,C,][=B,,,=B,,][G,,,G,,] [C,,C,][D,,D,][E,,E,][C,,C,] | %10
 [G,,G,][G,,,G,,][G,,G,][F,,F,] [E,,E,][C,,C,][F,,F,][G,,G,] | %11
 [A,,A,](!tenuto![G,,B,]!tenuto![A,,C]!tenuto![F,,A,]) [B,,B,]B,[B,,B,][_A,,_A,] | %12
 [G,,G,]F,!ped!E,[E,,E,]- [E,,E,]!ped-up![E,,,E,,][D,,,D,,][C,,C,] | %13
 [=B,,,=B,,][G,,,G,,][C,,C,][_B,,,_B,,] [A,,,A,,][F,,,F,,][B,,,B,,][D,,D,] | %14
!p! ([E,,E,][D,,D,][E,,E,][D,,D,] [E,,E,][D,,D,][E,,E,][C,,C,]) | %15
!pp! [D,,D,][E,,E,][F,,F,][F,,,F,,] [B,,,B,,][C,,C,][D,,D,][E,,E,] | %16
 [F,,F,][G,,G,][F,,F,][E,,E,] [D,,D,][C,,C,][=B,,,=B,,][G,,,G,,] | %17
 [C,,C,][D,,D,][C,,C,][_B,,,_B,,] [A,,,A,,][G,,,G,,][^F,,,^F,,][D,,,D,,] | %18
 [G,,,G,,][G,,G,][A,,A,][F,,F,] [B,,B,][C,,C,]!ped![D,,D,][E,,E,]!ped-up! | %19
 [F,,F,]!pp![F,,,F,,][E,,,E,,][D,,,D,,] [C,,,C,,][D,,,D,,]!ped![E,,,E,,][C,,,C,,]!ped-up! | %20
!ped! z (D-[I:staff -1]GF[I:staff +1] ED) z [^F,,^F,]!ped-up! | %21
 [G,,G,][=F,,=F,]!ped! [E,,E,]2- [E,,E,]!ped-up![D,,D,]!ped! [C,,C,]2- | %22
 [C,,C,]!ped-up![C,,,C,,] [C,,C,]2- [C,,C,][A,,,A,,][B,,,B,,][^F,,,^F,,] | %23
 [G,,,G,,][B,,,B,,][C,,C,][D,,D,] [E,,E,][=F,,=F,][E,,E,][D,,D,] | %24
 [C,,C,][C,,,C,,] z [C,,C,] [G,,,G,,][G,,G,][=F,,=F,][E,,E,] | %25
 [D,,D,][D,,,D,,][D,,D,][G,,,G,,] [C,,C,][E,,E,][_A,,,_A,,][C,,C,] | %26
 [F,,,F,,][F,,F,][E,,E,][_A,,_A,] [G,,G,][F,,F,][G,,G,][G,,,G,,] | %27
 [C,,C,][D,,D,][C,,C,][_B,,,_B,,] [A,,,A,,][D,,,D,,] [D,,D,]2- | %28
 [D,,D,][B,,,B,,][E,,E,][D,,D,] [=E,,=E,][C,,C,][=F,,=F,][E,,E,] | %29
 [^F,,^F,][D,,D,][G,,G,][G,,,G,,] [C,,C,][D,,D,][_E,,_E,][C,,C,] | %30
 [D,,D,][C,,C,][B,,,B,,][E,,E,] [C,,C,][A,,,A,,][D,,D,][D,,,D,,] | %31
"^ten.""^dolce"[I:staff -1] [G,=B,][I:staff +1]([C,-A,][D,=B,][B,,G,-] [C,G,])(([F,D] [E,C][D,D]/[E,_B,]/ | %32
 [C,A,]))[E,G,]^F,A,/[I:staff -1]E/[I:staff +1] G,,!tenuto![B,,,B,,]!tenuto![D,,D,]!tenuto![D,,,D,,] | %33
 !fermata![G,,,G,,]8!ped! |] %34
V:4
 x2[K:bass] x6 | x8 | x8 | x2[K:treble] G,A, B,A,/[I:staff +1]G,/ [D,-A,]2 | x8 | x8 | %6
 x4[I:staff -1] _E2 A,2 | G,4- x4 | x8 | x8 | x5 (GA) x | x8 | x4 CB,/A,/ x _A | x8 | x8 | x8 | %16
 x8 | x8 | x8 | x8 | x8 | x8 | x8 | x3 !tenuto!D- D"_(u.c.)"C/=B,/ (C/D/)(D/E/) | x8 | x8 | x8 | %27
 x8 | x8 | x8 | x8 | x8 | x6 D>C- | x/ =B,/!tenuto!F/!tenuto!D/ B,/B,/C x4 |] %34
V:5
 x8 | x8 | x8 | x8 | [D,,,D,,][D,,D,][E,,E,][D,,D,] [=E,,=E,][C,,C,][=F,,=F,][E,,E,] | x8 | x8 | %7
 x8 | x8 | x8 | x8 | x4[I:staff -1] F[I:staff +1]D/C/ x2 | x E/D/ C2 x4 | x8 | x8 | x8 | x8 | x8 | %18
 x8 | x8 | G,,G, z [G,,G,] G,^F, x2 | x2 z/ (D/E/D/ C) x/ z/ x/ ([=B,D]/[CE]/[B,D]/ | %22
 [CE]) z z x5 | x8 | x8 | x8 | x8 | x8 | x8 | x8 | x8 | !tenuto!!1!G,,4- G,, G,3 | %32
 !tenuto!G,,4 G,2 x2 | x4!pp! [D,,=B,,]4 |] %34
V:6
 x8 | x8 | x8 | x8 | x8 | x4[I:staff -1] D/[I:staff +1]CB,/ A,/G,/[I:staff -1]C | x8 | x8 | x8 | %9
 x8 | x8 | x8 | x8 | x8 | x8 | x8 | x8 | x8 | x8 | x8 | x8 | x8 | x8 | x8 | x8 | x8 | x8 | x8 | %28
 x8 | x8 | x8 |[I:staff +1] !5!G,,,8 | x2 D,^F, x4 | x8 |] %34
V:7
 x2[K:bass] x6 | x8 | x8 | x2[K:treble] x6 | x8 | x8 | x8 | x8 | x8 | x8 | D2 x6 | x8 | x8 | %13
 Gc/=B/ z (G F)!1!_B/!1!A/ z F | x8 | BG (F/D/E-) BA, !tenuto!B,2- | x8 | x8 | %18
 B, (E2 D/C/)[I:staff +1] B,3 x | x7[I:staff -1] A | x8 | x8 | x3 !1!C/B,/ x2 GA | x8 | x8 | x8 | %26
 x8 | x8 | x8 | x4 D/CB,/ A,/[I:staff +1]G,/[I:staff -1][CE]/B,/ | x4 _E2 A,2 | x8 | x8 | G8 |] %34
V:8
 x8 | x8 | x8 | x8 | x8 | x8 | x8 | x8 | x8 | x8 | x8 | x8 | x8 | x8 | x8 | x8 | x8 | x8 | x8 | %19
 x8 | G,,,2 x6 | x8 | x8 | x8 | x8 | x8 | x8 | x8 | x8 | x8 | x8 | x8 | x8 | x8 |] %34

